X: 7316
T: Cleveland Park
R: jig
M: 6/8
K: Dminor
|:A,DE FED|B,DE FED|=B,DE FED|E/F/GE CEG|
A,DE FED|B,DE FED|E/F/GE CEG|GFE D3:|
DFA dAF|GAB AFD|B,DF A,DF|FED ^CDE|
DFA dAF|GAB AFD|B,DF A,DF|ED^C D3|
DFA dAF|GAB AFD|B,DF A,DF|FED ^CDE|
A,DE FED|B,DE FED|E/F/GE CEG|GFE D3||

